X:299
T:Steirer (97.)
C:traditionell
A:Salzkammergut
S:MIDI erhalten von Christian Amon. Nach einer kopie im besitz von Johann Stoeckl eines manuscriptes. Stoeckl(zitiert von Amon): "diese sammlung wurde 1935 im hause der familie Hohenlohe-Schillingfuerst gefunden. Sie wurde von einem der beiden brueder Steinegger 1866 verfasst. Die originale sind im Ausseer Kammerhofmuseum".
M:3/4
L:1/8
K:G
V:1
dB |\
cz Fz F2 | G4 dB | cz Fz F2 | G4 dB |\
cB cB cA | BA BG BG | cz Fz F2 | G4 |*
V:2
gd |\
ez Az A2 | B4 gd | ez Az A2 | B4 gd |\
ed ed ec | d^c dB dg | ez Az A2 | B4 |*
